icons/watermelon.svg

<?xml version="1.0" encoding="UTF-8"?><svg id="uuid-4bd80f2b-f01f-40b2-bc0e-94eafb9059cc" xmlns="http://www.w3.org/2000/svg" viewBox="0 0 50 50"><path d="M47.56,14.85H1.69c-.28,0-.5,.22-.5,.5,0,12.92,10.51,23.43,23.43,23.43s23.43-10.51,23.43-23.43c0-.28-.22-.5-.5-.5ZM11.69,27.78c-2.88-3.15-4.67-7.33-4.76-11.93H23.62l-11.93,11.93Zm12.39-10.97v16.73c-4.53-.16-8.64-2.04-11.7-5.03l11.7-11.7Zm1-.34l11.51,12.43c-3.06,2.81-7.09,4.56-11.51,4.65V16.46Zm12.24,11.75l-11.45-12.36h16.59c-.09,4.81-2.03,9.17-5.14,12.36Zm-12.68,9.57C12.42,37.78,2.47,27.99,2.2,15.85h3.73c.18,10.35,8.52,18.72,18.76,18.72s18.58-8.37,18.76-18.72h3.6c-.27,12.14-10.23,21.93-22.43,21.93Z"/></svg>

<svg id="b5535964-df69-47a1-9160-1971fccd584c" data-name="ICONS" xmlns="http://www.w3.org/2000/svg" viewBox="0 0 50 50"><path d="M47.56,14.85H1.69a.5.5,0,0,0-.5.5,23.44,23.44,0,0,0,46.87,0A.5.5,0,0,0,47.56,14.85ZM11.69,27.78A18.16,18.16,0,0,1,6.93,15.85H23.62Zm12.38-11V33.53a17.57,17.57,0,0,1-11.69-5Zm1-.35L36.58,28.89a17.5,17.5,0,0,1-11.51,4.66ZM37.31,28.21,25.86,15.85H42.45A18.1,18.1,0,0,1,37.31,28.21ZM24.63,37.78A22.46,22.46,0,0,1,2.2,15.85H5.93A18.93,18.93,0,0,0,24.69,34.57,18.93,18.93,0,0,0,43.45,15.85h3.61A22.46,22.46,0,0,1,24.63,37.78Z"/></svg>
